site-root/img/slate-icons/gsites.svg

<svg version="1" xmlns="http://www.w3.org/2000/svg" viewBox="0 0 200 200"><path d="M30.1 73.5v84.7c0 6.6 5.1 12.3 11.7 12.3H158c6.6 0 12.1-5.7 12.1-12.3V73.5h-140zm65 69h-59v-13h59v13zm0-20h-59v-13h59v13zm0-20h-59v-13h59v13zm69 40h-60v-53h60v53z"/><path opacity=".6" d="M158 30.5H41.8c-6.6 0-11.7 4.9-11.7 11.5v23.5h140V42c0-6.6-5.5-11.5-12.1-11.5z"/><path opacity=".5" d="M30.1 65.5h140v8h-140z"/><g opacity=".7"><path d="M36.1 89.5h59v13h-59zM36.1 109.5h59v13h-59zM36.1 129.5h59v13h-59zM104.1 89.5h60v53h-60z"/></g></svg>

<?xml version="1.0" encoding="utf-8"?>
<!-- Generator: Adobe Illustrator 18.1.1, SVG Export Plug-In . SVG Version: 6.00 Build 0)  -->
<svg version="1.0" xmlns="http://www.w3.org/2000/svg" xmlns:xlink="http://www.w3.org/1999/xlink" x="0px" y="0px"
	 viewBox="0 0 200 200" enable-background="new 0 0 200 200" xml:space="preserve">
<g id="Layer_1">
</g>
<g id="Layer_2">
	<g id="Add_Favorite">
	</g>
	<g id="New_Symbol_17">
	</g>
	<g>
		<g>
			<path d="M30.1,73.5v84.7c0,6.6,5.1,12.3,11.7,12.3H158c6.6,0,12.1-5.7,12.1-12.3V73.5H30.1z M95.1,142.5h-59v-13h59V142.5z
				 M95.1,122.5h-59v-13h59V122.5z M95.1,102.5h-59v-13h59V102.5z M164.1,142.5h-60v-53h60V142.5z"/>
			<path opacity="0.6" d="M158,30.5H41.8c-6.6,0-11.7,4.9-11.7,11.5v23.5h140V42C170.1,35.4,164.6,30.5,158,30.5z"/>
			<rect x="30.1" y="65.5" opacity="0.5" width="140" height="8"/>
		</g>
		<g opacity="0.7">
			<rect x="36.1" y="89.5" width="59" height="13"/>
			<rect x="36.1" y="109.5" width="59" height="13"/>
			<rect x="36.1" y="129.5" width="59" height="13"/>
			<rect x="104.1" y="89.5" width="60" height="53"/>
		</g>
	</g>
</g>
</svg>
